X:22
T:Samuel Hawkes’ Hornpipe,aka. JBu.22
O:England,South Yorkshire
S:Joshua Burnett’s MS,c1835,S.Yorkshire
M:C|
L:1/8
Q:1/2=80
C:unnamed in MS, named by Paul Davenport
R:.hornpipe
Z:vmp.R.Greig.2010
K:D
A2|d>AF>A defg|afbga2fa|ageg gfdf|edef egfe|
dAFA defg|afbga2fa|ageg gfdf|edefd2:|
|:f>g|a^gag aAAa|gfgf gGGg|fdaf bagf|f4efg^g|
a^gag aAAa|gfgf gGGg|fdad bgec|d2d2d2:|

